X: 30
T: No_37_Woman's_Game_Song_(a).krn
N: Derived from No_37_Woman's_Game_Song_(a).krn
%%abc-version 2.0
%%abcx-abcm2ps-target-version 5.9.1 (29 Sep 2008)
%%abc-creator hum2abc beta
%%abcx-conversion-date 2019/03/15 08:35:00
%%humdrum-veritas 1365938285
%%humdrum-veritas-data 7596294
%%linebreak <none>
%%barnumbers 0
L: 1/8
M: 2/4
K: Bb clef=bass
[K:clef=bass][M:2/4]D/D3/ D/D3/ [I:setbarnb 2]| 
(D/C3/)B,2 | 
[M:3/4]C2D3/C/B,2 | 
G,/G,3/ G,D, D, z | 
[M:2/4]B,/B,3/ DC | 
CF,F,2 | 
G,F,G,2 | 
G,F,G,2 | 
F,D,z2 | 
D/D3/ D/D3/ | 
(D/C3/)B,2 | 
[M:3/4]C2D3/C/B,2 | 
G,/G,3/ G,D,z2 | 
[M:2/4]B,/B,3/ DC | 
[M:3/4]CF,G,2F, z | 
[M:2/4]G,2F,2 | 
[M:3/4]G,2F,D,z2 :|]  
[M:2/4]CF,F,2 [I:setbarnb 19]| 
G,2G,F, | 
G,2F,2 | 
G,2F,2 |]  



